my-project/dist/assets/images/share/twitter.svg

<svg width="45" height="45" viewBox="0 0 45 45" fill="none" xmlns="http://www.w3.org/2000/svg">
<g clip-path="url(#clip0_12_250)">
<path d="M22.5008 44.9996C34.9271 44.9996 45.0006 34.9261 45.0006 22.4998C45.0006 10.0735 34.9271 0 22.5008 0C10.0745 0 0.000976562 10.0735 0.000976562 22.4998C0.000976562 34.9261 10.0745 44.9996 22.5008 44.9996Z" fill="#55ACEE"/>
<path d="M36.2822 16.17C35.318 16.5975 34.2808 16.8867 33.193 17.0158C34.3036 16.3504 35.1559 15.2976 35.5582 14.041C34.519 14.6575 33.3675 15.1047 32.143 15.3457C31.162 14.3009 29.7642 13.648 28.2164 13.648C25.2468 13.648 22.8384 16.0565 22.8384 19.026C22.8384 19.4476 22.8861 19.8579 22.9783 20.2518C18.5087 20.0275 14.5456 17.8866 11.8929 14.6318C11.43 15.426 11.1645 16.3504 11.1645 17.3359C11.1645 19.2013 12.1147 20.8482 13.557 21.8124C12.6758 21.7847 11.8459 21.5428 11.1212 21.1389C11.1208 21.1618 11.1208 21.1847 11.1208 21.2071C11.1208 23.8129 12.9754 25.9864 15.4352 26.4801C14.9844 26.6037 14.5083 26.669 14.0186 26.669C13.6713 26.669 13.3348 26.6357 13.0067 26.5732C13.6909 28.7093 15.6767 30.2643 18.0306 30.308C16.1896 31.7507 13.871 32.6102 11.3506 32.6102C10.9174 32.6102 10.4883 32.585 10.0684 32.5348C12.4472 34.0613 15.2748 34.9513 18.3118 34.9513C28.204 34.9513 33.6138 26.7565 33.6138 19.6489C33.6138 19.4159 33.6086 19.1837 33.5981 18.9535C34.6498 18.1954 35.5614 17.2485 36.2822 16.17Z" fill="#F1F2F2"/>
</g>
<defs>
<clipPath id="clip0_12_250">
<rect width="45" height="45" fill="white"/>
</clipPath>
</defs>
</svg>

<svg width="45" height="45" fill="none" xmlns="http://www.w3.org/2000/svg"><g clip-path="url(#clip0_12_250)"><path d="M22.5 45C34.928 45 45 34.926 45 22.5 45 10.073 34.928 0 22.5 0 10.076 0 .002 10.073.002 22.5c0 12.426 10.074 22.5 22.5 22.5z" fill="#55ACEE"/><path d="M36.282 16.17a10.73 10.73 0 01-3.089.846 5.393 5.393 0 002.365-2.975 10.764 10.764 0 01-3.415 1.305 5.373 5.373 0 00-3.927-1.698 5.379 5.379 0 00-5.238 6.604 15.267 15.267 0 01-11.085-5.62 5.355 5.355 0 00-.729 2.704c0 1.865.95 3.512 2.393 4.476a5.34 5.34 0 01-2.436-.673v.068a5.381 5.381 0 004.314 5.273 5.356 5.356 0 01-2.428.093 5.384 5.384 0 005.024 3.735 10.79 10.79 0 01-6.68 2.302c-.434 0-.863-.025-1.283-.075a15.213 15.213 0 008.244 2.416c9.892 0 15.302-8.195 15.302-15.302 0-.233-.005-.465-.016-.696a10.907 10.907 0 002.684-2.783z" fill="#F1F2F2"/></g><defs><clipPath id="clip0_12_250"><path fill="#fff" d="M0 0h45v45H0z"/></clipPath></defs></svg>
